X: 01001
T: SCOTTY O'NEIL
R: reel
C: Bob McQuillen '73
B: Bob's Note Book 1&2 #1
Z: 1997 John Chambers
M: C|
L: 1/8
K: D
|: AG | F2D2 A2F2 | dedc BABc | d2A2 G2F2 | F2E4 AG |
      | F2D2 A2F2 | dedc BABc | d2A2 ABAG | F2D4 :|
|: AG | F2A2 f3e  | d2c2 B3c  | d2A2 G2F2 | F2E4 AG |
      | F2A2 f3e  | decc BABc | d2A2 ABAG | F2D4 :|
%%sep 1 1 500
